frontend/src/assets/close-icon.svg

<svg width="30" height="30" viewBox="0 0 30 30" fill="none" xmlns="http://www.w3.org/2000/svg">
<path d="M30 25C30 27.75 27.75 30 25 30H5C2.25 30 0 27.75 0 25V5C0 2.25 2.25 0 5 0H25C27.75 0 30 2.25 30 5V25Z" fill="#E55B1C"/>
<path d="M24 9.59951L20.4 5.99951L15 11.3995L9.6 5.99951L6 9.59951L11.4 14.9995L6 20.3995L9.6 23.9995L15 18.5995L20.4 23.9995L24 20.3995L18.6 14.9995L24 9.59951Z" fill="white"/>
</svg>

<?xml version="1.0" encoding="UTF-8"?>
<svg viewBox="0 0 30 30" xmlns="http://www.w3.org/2000/svg">
<path d="m30 25c0 2.75-2.25 5-5 5h-20c-2.75 0-5-2.25-5-5v-20c0-2.75 2.25-5 5-5h20c2.75 0 5 2.25 5 5v20z" fill="#E55B1C"/>
<path d="m24 9.5995-3.6-3.6-5.4 5.4-5.4-5.4-3.6 3.6 5.4 5.4-5.4 5.4 3.6 3.6 5.4-5.4 5.4 5.4 3.6-3.6-5.4-5.4 5.4-5.4z" fill="#fff"/>
</svg>
